data/styles/clear/style-night/symbols/place-of-worship-m.svg

<svg height="24" viewBox="0 0 24 24" width="24"><g fill="none" fill-rule="evenodd"><circle cx="12" cy="12" fill="#fff" opacity=".4" r="12"/><circle cx="12" cy="12" fill="#4d361f" r="11"/><path d="m12 5-1.3846154 1.56521739v1.56521739l-1.84615383 2.08695652v6.7826087h6.46153843v-6.7826087l-1.8461538-2.08695652v-1.56521739zm-6 6.2608696v5.7391304h1.38461538v-5.7391304zm10.6153846 0v5.7391304h1.3846154v-5.7391304z" fill="#fff" opacity=".6"/></g></svg>

<svg width="24" height="24" viewBox="0 0 24 24">
  <g fill="none" fill-rule="evenodd">
    <circle cx="12" cy="12" r="12" fill="#FFF" opacity=".4"/>
    <circle cx="12" cy="12" r="11" fill="#4C351E"/>
    <path fill="#FFF" d="M12,5 L10.6153846,6.56521739 L10.6153846,8.13043478 L8.76923077,10.2173913 L8.76923077,17 L15.2307692,17 L15.2307692,10.2173913 L13.3846154,8.13043478 L13.3846154,6.56521739 L12,5 Z M6,11.2608696 L6,17 L7.38461538,17 L7.38461538,11.2608696 L6,11.2608696 Z M16.6153846,11.2608696 L16.6153846,17 L18,17 L18,11.2608696 L16.6153846,11.2608696 Z" opacity=".6"/>
  </g>
</svg>
